X: 41703
T: Valhalla
R: barndance
M: 4/4
K: Dmajor
|:A3B A2 FD|EF D2 D2 dc|B3d B2 AF|AB E2 E2 DE|
F2 dc B3A|AFED B2 A2-|ABde f2 ed|1 d2 d2 d2 FG:|2 d2 d2 d2 FA||
|:B2 AF A2 AB|de f2 f2 ed|fa b2 bafd|e6 ab|
f2 ed B2 dB|AFED B2 A2-|ABde f2 ed|1 d2 d2 d2 FA:|2 d2 d2 d2 FG||

